X:1
T:Title
%%score 1 2 3 4
L:1/8
M:4/2
K:F
V:1 treble nm="Part_1"
V:2 treble-8 nm="Part_2"
V:3 treble-8 nm="Part_3"
V:4 bass nm="Part_4"
V:1
 (3:2:2D16 E8 | (F8 G8) | E16 | D8 z4 A4- | A2 G2 F4 E2 D2 G4- | G4 ^F2 E2 F8 | G16 | z16 | z16 | %9
 z16 | G8 d8 | d8 c4 d4 | B8 A4 B4 | c4 A8 G4 | A16 | z16 | z16 | z16 | z4 d4 c6 BA | %19
 B4 A6 G2 G4- | G4 ^F4 G8 | z16 | (G8 A8) | B12 A2 B2 | c8 z8 | z4 c4 B4 A2 G2 | A8 G8 | z16 | %28
 z4 c4 B4 A2 G2 | A8 G6 A2 | B4 A6 G2 F2 E2 | D4 G8 ^F4 | G16 || d16 | (c8 B8) | A16 | G16 | z16 | %38
 (A8 B8) | c12 A4 | B6 AG B4 A4- | A2 G2 G8 ^F4 | G8 z8 | z16 | z16 | z4 G4 B8 | A8 G6 A2 | %47
 B4 c4 A4 d4- | d4 ^c4 d8 | z16 | z8 z4 G4 | A4 B4 c4 d4 | B8 A4 c4 | B4 A8 G4 | A4 F4 G4 A4- | %55
 A4 G2 F2 E8 | D8 z4 D4 | E4 F4 G4 E4 | D4 G4 A4 B4 | c2 B2 A2 G2 B4 (3:2:1A6- | %60
 (3:2:2A2 G4 G8 ^F4 | G16 || z16 | z16 | G8 (A8 | B8) c8 | z4 c4 B6 AG | B4 (3:2:2A8 G4 G4- | %68
 G4 ^F4 G8 | z16 | z16 | z8 D8 | E8 F8 | G8 F4 E2 D2 | E8 D8 | z4 d8 c4 | d4 B4 A8 | z4 c4 B4 A4- | %78
 A4 G4 A8 | z16 | z16 | (3:2:2d8 c4 B4 (3:2:1A6 | (3:2:2A2 G4 G8 ^F4 | G8 z4 D4 | E4 F4 G8 | %85
 F6 ED E8 | D6 E2 F2 G2 A4- | A2 G2 G8 ^F4 | G16 |] %89
V:2
 d12 =B4 | (c8 d8) | c16 | z4 G8 F2 E2 | F8 G8 | z16 | z4 d8 c4 | d4 B4 A4 f4- | f4 e2 d2 e8 | %9
 d4 A8 G2 F2 | G6 A2 B4 A4 | F4 f4 e4 d4- | d4 c2 B2 c4 B4 | z4 f4 d4 e4 | f4 d4 (3c8 B2 A2 | %15
 B4 (3:2:2A8 G4 G4- | G4 ^F4 G4 B4 | A4 F4 G4 E4 | D8 z8 | d6 c2 d4 e4 | d8 z4 d4 | e8 f8 | %22
 g4 e4 d4 f4 | e4 d2 c2 d8 | c8 z4 d4 | e4 f4 g8 | f4 e2 d2 e8 | d4 e6 d2 g4- | g4 f4 g4 d4- | %29
 d2 e2 f4 e4 g4- | g4 f4 d4 c4 | d4 c4 d8 | d16 || d6 e2 f4 g4 | e4 f4 d4 g4- | g4 ^f2 e2 f8 | %36
 g8 z8 | f16 | (c8 d8) | c16 | B6 c2 d2 e2 f4 | e4 c4 d8 | d16 | z16 | z16 | z8 z4 d4 | f8 e6 c2 | %47
 d4 e4 f4 g4 | e8 (d8 | f8) e4 d4- | d2 c2 d4 e6 d2 | e2 f2 g6 f2 f4- | f4 e4 f8 | z16 | %54
 c4 d4 e4 (3:2:1f6- | (3:2:2f2 e4 d8 ^c4 | d4 f6 e2 f2 d2 | c4 f4 e8 | z4 e4 f4 d4 | %59
 c4 e4 (3:2:2f8 e4 | d4 c4 d8 | d16 || z16 | z8 d8 | (e8 f8) | g8 f4 e4 | d4 e2 f2 g8 | z4 d8 B4 | %68
 c4 d4 G4 c4- | c4 (3:2:2c8 c4 B2 G2 | A4 G4 d8 | z8 z4 d4- | d4 c4 d4 f4 | e8 d8 | z4 g8 f4 | %75
 g4 d4 e8 | d8 c4 f4- | f2 e2 f4 d8 | z8 (3:2:2d8 c4 | B4 A4 G4 F4 | G4 A4 (B8 | A8) G4 d4- | %82
 d4 e4 d8 | B6 A2 G4 F4 | B4 A8 G4 | A4 d8 c4 | B6 AG (3:2:2A8 F4 | B4 c4 d8 | d16 |] %89
V:3
 z16 | z8 G8- | G8 A8 | B8 c8 | z4 c4 B4 A2 G2 | A8 A8 | G16 | z16 | z8 G8 | d8 d8 | c8 d8 | z16 | %12
 z8 z4 d4 | c4 d4 B8 | A16 | z16 | z8 z4 d4 | c6 BA B4 (3:2:1A6- | (3:2:2A2 G4 G8 F4 | %19
 G4 A4 B4 c4 | A8 G8 | z16 | z16 | G16 | (A8 B8) | c8 z8 | z16 | z4 c4 B4 A2 G2 | A8 G8 | z16 | %30
 z8 z4 c4 | B4 A2 G2 A8 | G16 || B12 G4 | A4 F4 G8 | z4 d4 A4 d4- | d4 c2 B2 c8 | d6 c2 B4 A4- | %38
 A2 G2 F2 E2 D4 G4- | G4 F2 E2 F8 | G8 z4 c4 | B4 A2 G2 A8 | z4 G4 B8 | A8 G6 A2 | B4 c4 A4 d4- | %45
 d4 ^c4 d8- | d8 z8 | z16 | z8 z4 G4 | A4 B4 c4 d4 | B8 A4 c4- | c4 B4 A4 G2 F2 | G8 z4 F4 | %53
 G4 A4 B8 | A8 z8 | A16 | B16 | A8 G4 A4 | B4 c4 A4 G4 | z4 c4 (3:2:2d8 c4 | B4 G4 A8 | G16 || %62
 z8 G8 | (A8 B8) | c8 z4 c4 | B6 AG A4 c4 | B4 (3:2:2A8 G4 G4- | G4 ^F4 (G8 | A8) z4 G4 | A8 B8 | %70
 c8 B4 A2 G2 | A8 G8 | z16 | z8 z4 d4- | d4 c4 d8 | B8 A8 | z8 z4 c4- | c2 B2 A4 G4 A4 | B8 A8 | %79
 z8 d6 c2 | B4 (3:2:2A8 G4 G4- | G4 F4 G4 A4 | B4 c4 A8 | G4 (3:2:2d8 e4 f4 | e4 d8 c4 | d8 A8 | %86
 z4 d8 c4 | B4 A2 G2 A8 | G16 |] %89
V:4
 G,,16 | A,,8 B,,8 | C,8 z4 C,4 | B,,6 A,,G,, A,,8 | A,,8 G,,8 | D,16 | G,,4 B,,4 C,8 | G,,8 D,8 | %8
 D,8 C,8 | D,4 F,8 E,2 D,2 | E,8 D,8- | D,8 z4 G,4- | G,4 G,4 F,4 G,4 | A,4 F,4 G,8 | D,8 F,6 E,2 | %15
 D,4 C,8 B,,4 | A,,8 G,,8 | z4 A,,4 G,,4 A,,4 | B,,8 A,,8 | G,,4 D,4 G,4 C,4 | D,8 G,,8 | z8 D,8 | %22
 (E,8 F,8) | G,8 z8 | z4 C,4 G,,4 B,,4 | A,,8 (G,,8 | D,8) z4 G,4 | F,4 E,4 G,8 | z8 z4 G,4- | %29
 G,4 F,4 G,6 F,2 | G,4 (3:2:2D,8 E,4 F,4 | B,,4 E,4 D,8 | G,,16 || z16 | z16 | D,16 | _E,16 | %37
 D,16 | (C,8 (B,,8) | A,,16) | G,,4 G,8 F,4 | G,4 E,4 D,8 | G,,8 z4 D,4 | F,8 E,6 C,2 | %44
 D,4 E,4 F,4 G,4 | E,8 D,8- | D,8 z4 G,4- | G,4 C,4 D,4 B,,4 | A,,8 z8 | z4 D,4 E,4 F,4 | G,8 C,8 | %51
 z16 | z16 | z4 C,4 D,4 E,4 | F,8 E,4 D,4- | D,2 E,2 F,2 G,2 A,8 | z4 D,8 B,,4 | C,4 D,4 E,4 C,4 | %58
 D,4 C,4 F,4 G,4 | A,8 D,4 F,4 | G,4 E,4 D,8 | G,,16 || D,8 (E,8 | F,8) G,8 | z4 E,4 A,8 | %65
 G,8 z4 C,4 | D,4 C,4 (_E,8 | D,8) G,,8 | z4 D,4 E,8 | F,8 G,8 | F,4 E,4 D,4 G,4- | G,4 ^F,4 G,8 | %72
 (E,8 D,8) | (C,8 D,8) | z16 | z16 | (G,8 A,8) | F,8 G,4 F,4 | G,8 D,8 | (3:2:2D,8 C,4 B,,4 A,,4 | %80
 G,,4 F,,4 G,,2 A,,2 B,,2 C,2 | D,8 z4 D,4 | G,,4 C,4 D,8 | G,,4 B,,6 C,2 D,4 | G,4 F,4 E,8 | %85
 D,8 z8 | G,8 D,4 F,4 | G,4 E,4 D,8 | G,,16 |] %89

